X: 37
T: La Nouvelle Hambourgh
R: reel
M: 2/4
L: 1/8
Z: 2011 John Chambers <jc:trillian.mit.edu>
B: Charles & Samuel Thompson eds "Twenty Four Country Dances", London 1774, p.19 #1
K: D
% - - - - - - - - - - - - - - - - - - - - - - - - -
|: DFAd | fage | cA d/c/d/e/ | d2d2 | AGFE | DFAd | fage | d2d2 :|
|: ecAd | fdAf | gfed | cB/c/ A2 | ecAd | fdAg | fe/d/ ed/c/ | d2d2 :|
K: Dm
|: FEDE | FGAd | AGFE | FED^C | FEDE | FGAd | ^cde^c | d2d2 :|
|: fedf | gfeg | fd^cd | e^cA2 | FEDE | FGAd | ^cdeg | e^cd2 :|
% - - - - - - - - Dance description - - - - - - - -
%%begintext align
%% Cast off 1 Cu. & turn .|. lead thro' the bottom & cast up :|. hands
%% 6 round .|: lead thro' the top & cast off :|: set corners & turn .|:. :|:.
%% lead out sides .|:: :|::
%%endtext

%%sep 1 1 500
